!!!OTL: 1126. Der Rebner.
!!!ARE: Europa, Mitteleuropa, Deutschland
!!!SCT: E1126A
!!!TXL: @@SWG
!!!YEM: Copyright 1995, estate of Helmut Schaffrath.
**kern	**text
*ICvox	*
*M3/4	*
*met(3)	*
*k[b-]	*
*B-:	*
=1	=1
!LO:TX:a:t=Disc.	!
!LO:TX:a:t=Scmeltzerl, Quodl. 1544. Nr. 20	!
{4f	Wem
4f	wöll
4f	wir
=2	=2
2a	die-
4b-/	-ſen
=3	=3
2cc	Reb-
4cc	-ner
=4	=4
4a	brin-
4a}	-gen?
{8aL	Gut
8b-J	.
=5	=5
2cc	hof-
4cc	-fen,
=6	=6
4a	Bru-
4a	-der,
4b-/	wir
=7	=7
4cc	lie-
4cc	-gen
4cc	im
=8	=8
4a	Lu-
4a}	-der.
{4a	Wir
=9	=9
4a	wöl-
4a	-lens
4a	eim
=10	=10
2a	frei-
4a	-en
=11	=11
2b-/	Schlem-
4a	-mer
=12	=12
4g	brin-
4g}	-gen,
{4g	er
=13	=13
2f	mag
4d	ſein
=14	=14
2f}	wol.
{4a	Wir
=15	=15
4a	wöl-
4a	-lens
4a	eim
=16	=16
2a	frei-
4a	-en
=17	=17
2b-/	Schlem-
4a	-mer
=18	=18
4g	brin-
4g}	-gen,
{4g	er
=19	=19
2f	mag
4d	ſein
=20	=20
2.f}	wol.
==	==
!!!AGN: Trink -, Zech - Lied
!!!ONB: ESAC (Essen Associative Code) Database: ERK3
!!!AMT: simple triple
!!!AIN: vox
!!!EED: Helmut Schaffrath
!!!EEV: 1.0
!!!GTL: Trink- und Zechlieder.
!!!URL-scan: https://rosdok.uni-rostock.de/mcrviewer/recordIdentifier/rosdok_ppn745177999/iview2/phys_0067.iview2?x=188.1684953369795&y=1395.4420706598612&scale=0.701185927818147&rotation=0&layout=singlePageLayout
!!!ENC: Anna Maria Matuszewska
!!!EEV: 2024/12/23
*-	*-
